X:115
T:Lady Townsend's Fancy. THO5.115
M:2/4
L:1/8
B:Thompson's Complete Collection of 200 Favourite Dances Vol.5
F:https://www.libraryofdance.org/manuals/1780c-Thompson-Compleat-5.pdf
Z:vmp. Peter Dunk 2024
Q:1/4=110
K:G
B/d/B/G/ c/e/c/A/|f/a/f/d/ gG|B/d/B/G/ c/e/c/A/|B/A/G/F/ G2:|
|:dgeg|f/g/a/f/ gg|dgeg|f/g/a/f/ g2:|
|:B>cde|fgfe|d/e/f/g/ f/e/d/c/|B/A/G/F/ G2:|
W:
W:Cast off two Couples ./.
W:up again ./:
W:Lead down the middle :/.
W:up again and cast off :/:
W:Right and Left :./. .:/:

